X:1
T: Off to Donnybrook
C:
R:Jig
Q:180
K:G
M:6/8
L:1/16
E2|D2G2G2 B2G2G2|A2G2G2 G2B2d2|e2f2g2 d2B2G2|A2G2G2 B2G2E2|D2G2G2 B2G2G2|A2G2G2 G2B2d2|e2f2g2 d2B2G2|A2G2A2 G4f2|
g2f2g2 e2f2g2|e2d2B2 d2e2f2|g2f2g2 e2a2g2|f2d2d2 d4f2|g2f2g2 e2f2g2|e2d2B2 d2e2f2|g2f2e2 d2B2A2|B2G2G2 G4f2|
g2f2g2 e2f2g2|e2d2B2 d2e2f2|g2f2g2 e2a2g2|f2d2d2 d4f2|g2f2g2 e2f2g2|e2d2B2 d2e2f2|g2b2a2 g2f2e2|d2B2A2 B2G2E2|
D2G2G2 B2G2G2|A2G2G2 G2B2d2|e2f2g2 d2B2G2|A2G2G2 B2G2E2|D2G2G2 B2G2G2|A2G2G2 G2B2d2|e2f2g2 d2B2G2|A2G2A2 G4||
